svg/u1f6e4.svg

<svg viewBox="0 0 128 128" xmlns="http://www.w3.org/2000/svg">
  <path d="M3.83,65.39V32.27c0,0,8.03-0.69,14.38,2.89S32.19,48.79,35.07,51.1c2.89,2.31,6.81,6.24,8.78,6.93 c1.96,0.69,5.13,0.81,7.05,1.85c2.77,1.5,3.81,3.81,3.81,3.81l1.79,7.57L6.2,68.08L3.83,65.39z" fill="#A7D0D6"/>
  <path d="M124.2,64.68V37.01c0,0-4.34-0.35-11.5,6.35c-7.16,6.7-12.94,12.82-16.29,13.98 c-3.35,1.16-11.98,1.65-15.48,2.43c-5.2,1.16-8.09,4.97-8.09,4.97l13.75,3.81L124.2,64.68z" fill="#A7D0D6"/>
  <path d="M124.2,63.68l0.01,52.99c0,4.15-3.37,7.52-7.52,7.52H11.38c-4.15,0-7.52-3.37-7.52-7.52L3.83,64.39 L124.2,63.68z" fill="#7DB240"/>
  <path d="M3.84,54.85l0.01,32.5c0,0,4.65,0.1,8.27,0.01c3.63-0.1,8.11-0.76,8.69-2 c0.57-1.24-2.77-17.94-4.87-18.04s-5.06,9.93-5.06,9.93S9.09,54.76,3.84,54.85z" fill="#528D30"/>
  <path d="M29.97,50.8c-1.43,0-6.36,15.29-5.44,16.42c1.72,2.1,10.12,1.62,10.88-0.1 C35.85,66.15,32.07,50.8,29.97,50.8z" fill="#528D30"/>
  <path d="M86.86,67.03c0.59,1.61,9.26,1.72,9.64,0c0.31-1.4-2.28-15.46-4.58-15.46 C89.92,51.56,86.19,65.21,86.86,67.03z" fill="#528D30"/>
  <path d="M109.67,57.48c-1.24-0.08-5.15,8.02-4.77,9.26s7.06,1.05,7.06,1.05s-0.67,2.58,0.57,3.44 c1.24,0.86,9.45,1.15,10.31,0.19c0.86-0.95-2.1-19.76-4.96-19.95c-1.62-0.11-4.49,11.07-4.49,11.07S111.1,57.58,109.67,57.48z" fill="#528D30"/>
  <path d="M52.18,64.09l22.92-0.16c0,0,2.34,1.82,2.89,3.31c0.55,1.49,0.24,1.89,1.41,3.14s3.3,2.49,4.88,4.77 c1.57,2.28,1.9,5.28,2.91,6.94c2.37,3.9,6.22,6.41,7.86,8.88c3.3,4.97,2.45,8.76,4.92,13.03c2.52,4.35,6.56,5.71,8.42,9.76 c2.47,5.39,1.45,10.42,1.45,10.42l-95.91,0.04c0,0,0.08-5.35,2.59-9.67c2.52-4.32,5.94-5.14,8.06-8.76 c2.12-3.62,1.1-7.24,3.97-11.29c3.39-4.79,5.95-4.3,8.1-7.86c1.11-1.84,1.91-5.13,4.3-7.92c2.83-3.3,4.97-3.94,6.31-6.38 c1.34-2.44,1.26-4.01,2.36-5.97C50.7,64.42,52.18,64.09,52.18,64.09z" fill="#DAD0C5"/>
  <path d="M53.44,66.25c0,0-0.52,2.1,0.39,2.26c1.1,0.19,19.44,0.33,20.07,0.06c0.65-0.28,0.28-1.86,0.28-1.86 L53.44,66.25z" fill="#88857C"/>
  <path d="M49.14,72.8l-0.08,0.9c0,0-0.21,1.2,1.58,1.41c1.45,0.17,24.21,0.06,25.37,0 c1.17-0.06,2.4-1.1,2.47-1.82s-15.12-2.6-15.12-2.6L49.14,72.8z" fill="#88857C"/>
  <path d="M45.44,80.76l-0.78,0.78c0,0-0.32,1.56,1.1,2.01c0.73,0.23,9.64-0.09,18.69-0.13 c8.65-0.04,17.59,0.15,18.09,0.12c1.16-0.05,1.71-1.82,1.11-2.72c-0.13-0.2-10.34-2.95-19.92-2.92 C54.28,77.93,45.44,80.76,45.44,80.76z" fill="#88857C"/>
  <path d="M38.04,90.1c0,0-1.06,1.5-0.06,2.66c1.24,1.44,16.61,0.19,27.71,0.39s21.48-0.19,22.32-0.39 c0.84-0.19,1.04-2.53,1.04-2.53l-24.66-4.41L38.04,90.1z" fill="#88857C"/>
  <path d="M30.9,102.17c0.26-0.04-1.17,2.73,0.13,3.76s22.52,0.78,32.77,0.78s28.81-0.52,30.37-0.84 c1.56-0.32,2.47-2.14,1.95-3.18s-3.5-2.21-3.5-2.21l-47.83-0.91C44.79,99.58,30.45,102.24,30.9,102.17z" fill="#88857C"/>
  <path d="M24.83,117.23l-5.4,1.69c0,0-0.24,3.3,0.44,4.27c0.57,0.82,1.24,1.04,1.24,1.04l80.06-0.04 c0,0,3.13-0.12,4.63-1.99c1.28-1.6,0.72-3.96,0.72-3.96l-46.03-5.47L24.83,117.23z" fill="#88857C"/>
  <path d="M54.71,64.83l-1.2,0.12c0,0-0.13,0.47-0.1,1.23c0.02,0.55,0.3,0.79,0.63,0.9 c0.33,0.1,20.18,0.1,20.18,0.1s0.27-1.71,0.23-2.14c-0.04-0.43-0.82-1.11-0.82-1.11L54.71,64.83z" fill="#543529"/>
  <path d="M49.92,70.51c0,0-0.64,0.41-0.76,1.53c-0.13,1.15,0.16,1.76,0.97,1.8 c0.81,0.04,13.88-0.09,13.88-0.09s13.58-0.17,14.14-0.26c0.56-0.09,0.64-1.71,0.09-2.22C77.69,70.77,49.92,70.51,49.92,70.51z" fill="#543529"/>
  <path d="M44.73,79.12c0,0-0.51,1.78-0.07,2.42c0.44,0.64,38.36,0.31,38.71,0.24 c0.34-0.07,0.69-1.72,0.14-2.41c-0.55-0.69-20.56-1.31-20.56-1.31L44.73,79.12z" fill="#543529"/>
  <path d="M38.02,89.21c-0.06-0.01-0.32,0.79-0.23,1.37c0.15,0.89,0.47,1.3,1.57,1.23 c1.39-0.08,15.16-0.17,25.68-0.1c10.52,0.07,23-0.45,23.55-0.66c0.55-0.21,0.9-1.65,0.44-2.47c-0.38-0.68-25.05-1.52-25.05-1.52 L38.02,89.21z" fill="#543529"/>
  <path d="M31.73,98.49c0,0-1.38,2.61-1.1,4.4s1.1,1.65,2.96,1.65s21.24-0.07,31.35,0 c10.11,0.07,27.78-0.14,29.08-0.21s1.87-1.79,1.79-2.82c-0.21-2.49-2.2-4.88-2.2-4.88L31.73,98.49z" fill="#543529"/>
  <path d="M98.97,113.69l5.5,1.9c0,0,1.79,1.56,2.02,2.5c0.23,0.94-0.47,2.54-1.27,2.91 c-0.8,0.38-44.01,0.33-44.01,0.33s-39.59,0.3-40.18,0.15c-0.6-0.15-1.42-0.99-1.61-2.06c-0.19-1.07,0.41-2.27,0.79-3.01 c0.37-0.75,9.71-2.69,9.71-2.69L98.97,113.69z" fill="#543529"/>
  <path d="M25.62,109.73c-0.97,0.37-4.74,5.61-5.41,6.66c-0.67,1.05,0.67,1.94,1.87,1.94s84.09,0.11,84.28-0.39 c0.34-0.9-1.54-2.83-3.11-4.74c-2.34-2.82-3.55-4.04-3.55-4.04L25.62,109.73z" fill="#B88956"/>
  <path d="M34.4,95.85c-0.72,0.18-1.85,1.07-2.67,2.64c-0.82,1.57,0.21,2.95,0.21,2.95l62.31-0.04 c0,0,1.52-1.43,0.18-3.67c-1.34-2.24-2.42-2.33-2.42-2.33L34.4,95.85z" fill="#B88956"/>
  <path d="M41.31,85.41c-0.93,0.26-3.34,3.57-3.35,3.8c-0.04,0.54,50.86,0.2,51.18-0.14 c0.32-0.34-2.03-3.93-3.21-4.21C85.26,84.7,42.56,85.06,41.31,85.41z" fill="#B88956"/>
  <path d="M46.84,76.57c-0.43,0.09-2.69,2.35-2,2.97c0.33,0.3,10.08,0.19,19.27,0.14 c9.97-0.05,19.59,0.22,19.56-0.01c-0.06-0.46-2.01-2.75-2.7-3.1C80.27,76.22,47.87,76.36,46.84,76.57z" fill="#B88956"/>
  <path d="M50.93,69.32c-0.42,0.11-1.75,1.81-1.59,2.12c0.16,0.31,28.94,0.41,29.14,0.17 c0.17-0.2-1.25-2.17-1.71-2.25C76.29,69.28,51.36,69.21,50.93,69.32z" fill="#B88956"/>
  <path d="M53.5,64.96c0,0.19,20.97,0.36,20.97,0.08c0-0.29-0.35-1.32-0.86-1.4 c-0.51-0.08-18.17-0.12-19.14,0.08C53.96,63.82,53.5,64.77,53.5,64.96z" fill="#B88956"/>
  <path d="M61.47,65.58l-21.6,58.29l-4.98-0.08l-1.86-1.86l25.18-58l3.01-0.51 C61.22,63.44,61.89,64.2,61.47,65.58z" fill="#88857C"/>
  <path d="M88.47,122.16c0,0-22.35-56.29-22.47-56.85c-0.16-0.71,0.08-1.58,0.36-1.81 c0.27-0.23,2.84,0.22,2.84,0.22l26.61,58.13l0.91,2.15l-8.47-0.11L88.47,122.16z" fill="#88857C"/>
  <path d="M34.33,121.84c0.31-1.13,23.73-58.1,24.04-58.56c0.43-0.63,3.06-0.24,2.9,0.27 c-0.16,0.51-22.37,57.69-22.79,58.59s-0.98,1.19-2.44,1.19S34,123,34.33,121.84z" fill="#C8C9C6"/>
  <path d="M90.96,122.56c-0.77-1.54-24.69-58.64-24.59-59.05c0.09-0.38,2.21-0.6,2.73,0 c0.55,0.65,25.72,58.33,25.88,58.6c0.16,0.28,0.06,1.57-1.7,1.57C91.51,123.68,90.96,122.56,90.96,122.56z" fill="#C8C9C6"/>
</svg>

<svg viewBox="0 0 128 128" xmlns="http://www.w3.org/2000/svg">
  <defs/>
  <path d="M3.83,65.39 L3.83,32.27 C3.83,32.27 11.86,31.58 18.21,35.16 C24.56,38.74 32.19,48.79 35.07,51.1 C37.96,53.41 41.88,57.34 43.85,58.03 C45.81,58.72 48.98,58.84 50.9,59.88 C53.67,61.38 54.71,63.69 54.71,63.69 L56.5,71.26 L6.2,68.08 L3.83,65.39 Z" fill="#A7D0D6"/>
  <path d="M124.2,64.68 L124.2,37.01 C124.2,37.01 119.86,36.66 112.7,43.36 C105.54,50.06 99.76,56.18 96.41,57.34 C93.06,58.5 84.43,58.99 80.93,59.77 C75.73,60.93 72.84,64.74 72.84,64.74 L86.59,68.55 L124.2,64.68 Z" fill="#A7D0D6"/>
  <path d="M124.2,63.68 L124.21,116.67 C124.21,120.82 120.84,124.19 116.69,124.19 L11.38,124.19 C7.23,124.19 3.86,120.82 3.86,116.67 L3.83,64.39 L124.2,63.68 Z" fill="#7DB240"/>
  <path d="M3.84,54.85 L3.85,87.35 C3.85,87.35 8.5,87.45 12.12,87.36 C15.75,87.26 20.23,86.6 20.81,85.36 C21.38,84.12 18.04,67.42 15.94,67.32 C13.84,67.22 10.88,77.25 10.88,77.25 C10.88,77.25 9.09,54.76 3.84,54.85 Z" fill="#528D30"/>
  <path d="M29.97,50.8 C28.54,50.8 23.61,66.09 24.53,67.22 C26.25,69.32 34.65,68.84 35.41,67.12 C35.85,66.15 32.07,50.8 29.97,50.8 Z" fill="#528D30"/>
  <path d="M86.86,67.03 C87.45,68.64 96.12,68.75 96.5,67.03 C96.81,65.63 94.22,51.57 91.92,51.57 C89.92,51.56 86.19,65.21 86.86,67.03 Z" fill="#528D30"/>
  <path d="M109.67,57.48 C108.43,57.4 104.52,65.5 104.9,66.74 C105.28,67.98 111.96,67.79 111.96,67.79 C111.96,67.79 111.29,70.37 112.53,71.23 C113.77,72.09 121.98,72.38 122.84,71.42 C123.7,70.47 120.74,51.66 117.88,51.47 C116.26,51.36 113.39,62.54 113.39,62.54 C113.39,62.54 111.1,57.58 109.67,57.48 Z" fill="#528D30"/>
  <path d="M52.18,64.09 L75.1,63.93 C75.1,63.93 77.44,65.75 77.99,67.24 C78.54,68.73 78.23,69.13 79.4,70.38 C80.57,71.63 82.7,72.87 84.28,75.15 C85.85,77.43 86.18,80.43 87.19,82.09 C89.56,85.99 93.41,88.5 95.05,90.97 C98.35,95.94 97.5,99.73 99.97,104 C102.49,108.35 106.53,109.71 108.39,113.76 C110.86,119.15 109.84,124.18 109.84,124.18 L13.93,124.22 C13.93,124.22 14.01,118.87 16.52,114.55 C19.04,110.23 22.46,109.41 24.58,105.79 C26.7,102.17 25.68,98.55 28.55,94.5 C31.94,89.71 34.5,90.2 36.65,86.64 C37.76,84.8 38.56,81.51 40.95,78.72 C43.78,75.42 45.92,74.78 47.26,72.34 C48.6,69.9 48.52,68.33 49.62,66.37 C50.7,64.42 52.18,64.09 52.18,64.09 Z" fill="#DAD0C5"/>
  <path d="M53.44,66.25 C53.44,66.25 52.92,68.35 53.83,68.51 C54.93,68.7 73.27,68.84 73.9,68.57 C74.55,68.29 74.18,66.71 74.18,66.71 L53.44,66.25 Z" fill="#88857C"/>
  <path d="M49.14,72.8 L49.06,73.7 C49.06,73.7 48.85,74.9 50.64,75.11 C52.09,75.28 74.85,75.17 76.01,75.11 C77.18,75.05 78.41,74.01 78.48,73.29 C78.55,72.57 63.36,70.69 63.36,70.69 L49.14,72.8 Z" fill="#88857C"/>
  <path d="M45.44,80.76 L44.66,81.54 C44.66,81.54 44.34,83.1 45.76,83.55 C46.49,83.78 55.4,83.46 64.45,83.42 C73.1,83.38 82.04,83.57 82.54,83.54 C83.7,83.49 84.25,81.72 83.65,80.82 C83.52,80.62 73.31,77.87 63.73,77.9 C54.28,77.93 45.44,80.76 45.44,80.76 Z" fill="#88857C"/>
  <path d="M38.04,90.1 C38.04,90.1 36.98,91.6 37.98,92.76 C39.22,94.2 54.59,92.95 65.69,93.15 C76.79,93.35 87.17,92.96 88.01,92.76 C88.85,92.57 89.05,90.23 89.05,90.23 L64.39,85.82 L38.04,90.1 Z" fill="#88857C"/>
  <path d="M30.9,102.17 C31.16,102.13 29.73,104.9 31.03,105.93 C32.33,106.96 53.55,106.71 63.8,106.71 C74.05,106.71 92.61,106.19 94.17,105.87 C95.73,105.55 96.64,103.73 96.12,102.69 C95.6,101.65 92.62,100.48 92.62,100.48 L44.79,99.57 C44.79,99.58 30.45,102.24 30.9,102.17 Z" fill="#88857C"/>
  <path d="M24.83,117.23 L19.43,118.92 C19.43,118.92 19.19,122.22 19.87,123.19 C20.44,124.01 21.11,124.23 21.11,124.23 L101.17,124.19 C101.17,124.19 104.3,124.07 105.8,122.2 C107.08,120.6 106.52,118.24 106.52,118.24 L60.49,112.77 L24.83,117.23 Z" fill="#88857C"/>
  <path d="M54.71,64.83 L53.51,64.95 C53.51,64.95 53.38,65.42 53.41,66.18 C53.43,66.73 53.71,66.97 54.04,67.08 C54.37,67.18 74.22,67.18 74.22,67.18 C74.22,67.18 74.49,65.47 74.45,65.04 C74.41,64.61 73.63,63.93 73.63,63.93 L54.71,64.83 Z" fill="#543529"/>
  <path d="M49.92,70.51 C49.92,70.51 49.28,70.92 49.16,72.04 C49.03,73.19 49.32,73.8 50.13,73.84 C50.94,73.88 64.01,73.75 64.01,73.75 C64.01,73.75 77.59,73.58 78.15,73.49 C78.71,73.4 78.79,71.78 78.24,71.27 C77.69,70.77 49.92,70.51 49.92,70.51 Z" fill="#543529"/>
  <path d="M44.73,79.12 C44.73,79.12 44.22,80.9 44.66,81.54 C45.1,82.18 83.02,81.85 83.37,81.78 C83.71,81.71 84.06,80.06 83.51,79.37 C82.96,78.68 62.95,78.06 62.95,78.06 L44.73,79.12 Z" fill="#543529"/>
  <path d="M38.02,89.21 C37.96,89.2 37.7,90 37.79,90.58 C37.94,91.47 38.26,91.88 39.36,91.81 C40.75,91.73 54.52,91.64 65.04,91.71 C75.56,91.78 88.04,91.26 88.59,91.05 C89.14,90.84 89.49,89.4 89.03,88.58 C88.65,87.9 63.98,87.06 63.98,87.06 L38.02,89.21 Z" fill="#543529"/>
  <path d="M31.73,98.49 C31.73,98.49 30.35,101.1 30.63,102.89 C30.91,104.68 31.73,104.54 33.59,104.54 C35.45,104.54 54.83,104.47 64.94,104.54 C75.05,104.61 92.72,104.4 94.02,104.33 C95.32,104.26 95.89,102.54 95.81,101.51 C95.6,99.02 93.61,96.63 93.61,96.63 L31.73,98.49 Z" fill="#543529"/>
  <path d="M98.97,113.69 L104.47,115.59 C104.47,115.59 106.26,117.15 106.49,118.09 C106.72,119.03 106.02,120.63 105.22,121 C104.42,121.38 61.21,121.33 61.21,121.33 C61.21,121.33 21.62,121.63 21.03,121.48 C20.43,121.33 19.61,120.49 19.42,119.42 C19.23,118.35 19.83,117.15 20.21,116.41 C20.58,115.66 29.92,113.72 29.92,113.72 L98.97,113.69 Z" fill="#543529"/>
  <path d="M25.62,109.73 C24.65,110.1 20.88,115.34 20.21,116.39 C19.54,117.44 20.88,118.33 22.08,118.33 C23.28,118.33 106.17,118.44 106.36,117.94 C106.7,117.04 104.82,115.11 103.25,113.2 C100.91,110.38 99.7,109.16 99.7,109.16 L25.62,109.73 Z" fill="#B88956"/>
  <path d="M34.4,95.85 C33.68,96.03 32.55,96.92 31.73,98.49 C30.91,100.06 31.94,101.44 31.94,101.44 L94.25,101.4 C94.25,101.4 95.77,99.97 94.43,97.73 C93.09,95.49 92.01,95.4 92.01,95.4 L34.4,95.85 Z" fill="#B88956"/>
  <path d="M41.31,85.41 C40.38,85.67 37.97,88.98 37.96,89.21 C37.92,89.75 88.82,89.41 89.14,89.07 C89.46,88.73 87.11,85.14 85.93,84.86 C85.26,84.7 42.56,85.06 41.31,85.41 Z" fill="#B88956"/>
  <path d="M46.84,76.57 C46.41,76.66 44.15,78.92 44.84,79.54 C45.17,79.84 54.92,79.73 64.11,79.68 C74.08,79.63 83.7,79.9 83.67,79.67 C83.61,79.21 81.66,76.92 80.97,76.57 C80.27,76.22 47.87,76.36 46.84,76.57 Z" fill="#B88956"/>
  <path d="M50.93,69.32 C50.51,69.43 49.18,71.13 49.34,71.44 C49.5,71.75 78.28,71.85 78.48,71.61 C78.65,71.41 77.23,69.44 76.77,69.36 C76.29,69.28 51.36,69.21 50.93,69.32 Z" fill="#B88956"/>
  <path d="M53.5,64.96 C53.5,65.15 74.47,65.32 74.47,65.04 C74.47,64.75 74.12,63.72 73.61,63.64 C73.1,63.56 55.44,63.52 54.47,63.72 C53.96,63.82 53.5,64.77 53.5,64.96 Z" fill="#B88956"/>
  <path d="M61.47,65.58 L39.87,123.87 L34.89,123.79 L33.03,121.93 L58.21,63.93 L61.22,63.42 C61.22,63.44 61.89,64.2 61.47,65.58 Z" fill="#88857C"/>
  <path d="M88.47,122.16 C88.47,122.16 66.12,65.87 66,65.31 C65.84,64.6 66.08,63.73 66.36,63.5 C66.63,63.27 69.2,63.72 69.2,63.72 L95.81,121.85 L96.72,124 L88.25,123.89 L88.47,122.16 Z" fill="#88857C"/>
  <path d="M34.33,121.84 C34.64,120.71 58.06,63.74 58.37,63.28 C58.8,62.65 61.43,63.04 61.27,63.55 C61.11,64.06 38.9,121.24 38.48,122.14 C38.06,123.04 37.5,123.33 36.04,123.33 C34.58,123.33 34,123 34.33,121.84 Z" fill="#C8C9C6"/>
  <path d="M90.96,122.56 C90.19,121.02 66.27,63.92 66.37,63.51 C66.46,63.13 68.58,62.91 69.1,63.51 C69.65,64.16 94.82,121.84 94.98,122.11 C95.14,122.39 95.04,123.68 93.28,123.68 C91.51,123.68 90.96,122.56 90.96,122.56 Z" fill="#C8C9C6"/>
</svg>
